assets/img/braze_icons/currency-pound.svg

<svg fill="none" height="24" viewBox="0 0 24 24" width="24" xmlns="http://www.w3.org/2000/svg"><path d="m9.5275 5.35442c-.36139.39157-.64207.99461-.64379 1.94424.01252.8454.36476 1.44905.89328 2.35482l.03997.06852c.42714.7325.91764 1.6074 1.10484 2.778h4.0782c.5523 0 1 .4477 1 1s-.4477 1-1 1h-4.0575c-.2242 1.9448-1.06735 3.5405-1.87993 4.6733-.08113.1131-.16225.222-.24279.3267h8.68022c.5523 0 1 .4477 1 1s-.4477 1-1 1h-11c-.42602 0-.80526-.2699-.94482-.6724-.1393-.4018-.00929-.8476.32389-1.1115l.0019-.0015.02031-.0167c.01909-.0158.04988-.0417.09071-.0774.08174-.0715.20323-.1818.35128-.3284.29699-.2941.69577-.7291 1.09416-1.2845.65229-.9094 1.27703-2.1033 1.48766-3.5076h-2.42509c-.55228 0-1-.4477-1-1s.44772-1 1-1h2.38392c-.15483-.6385-.44981-1.1792-.79464-1.7705-.03193-.0547-.06464-.1104-.0979-.1669-.48605-.82683-1.08985-1.85392-1.1076-3.24487l-.00016-.01318c.00057-1.37858.42209-2.49169 1.17417-3.30657.74031-.80213 1.7224-1.2307 2.70611-1.40339 1.9064-.33467 4.1345.24278 5.3769 1.42295.4005.38036.4167 1.01332.0364 1.41375-.3804.40043-1.0133.4167-1.4138.03634-.7092-.67364-2.2643-1.14708-3.6537-.90316-.6642.11661-1.20819.38471-1.5822.78995z" fill="#801ed7"/></svg>

<svg width="24" height="24" viewBox="0 0 24 24" fill="none" xmlns="http://www.w3.org/2000/svg">
<path d="M9.5275 5.35442C9.16611 5.74599 8.88543 6.34903 8.88371 7.29866C8.89623 8.14406 9.24847 8.74771 9.77699 9.65348L9.81696 9.722C10.2441 10.4545 10.7346 11.3294 10.9218 12.5H15C15.5523 12.5 16 12.9477 16 13.5C16 14.0523 15.5523 14.5 15 14.5H10.9425C10.7183 16.4448 9.87515 18.0405 9.06257 19.1733C8.98144 19.2864 8.90032 19.3953 8.81978 19.5H17.5C18.0523 19.5 18.5 19.9477 18.5 20.5C18.5 21.0523 18.0523 21.5 17.5 21.5H6.5C6.07398 21.5 5.69474 21.2301 5.55518 20.8276C5.41588 20.4258 5.54589 19.98 5.87907 19.7161L5.88097 19.7146L5.90128 19.6979C5.92037 19.6821 5.95116 19.6562 5.99199 19.6205C6.07373 19.549 6.19522 19.4387 6.34327 19.2921C6.64026 18.998 7.03904 18.563 7.43743 18.0076C8.08972 17.0982 8.71446 15.9043 8.92509 14.5H6.5C5.94772 14.5 5.5 14.0523 5.5 13.5C5.5 12.9477 5.94772 12.5 6.5 12.5H8.88392C8.72909 11.8615 8.43411 11.3208 8.08928 10.7295C8.05735 10.6748 8.02464 10.6191 7.99138 10.5626C7.50533 9.73577 6.90153 8.70868 6.88378 7.31773L6.88362 7.30455C6.88419 5.92597 7.30571 4.81286 8.05779 3.99798C8.7981 3.19585 9.78019 2.76728 10.7639 2.59459C12.6703 2.25992 14.8984 2.83737 16.1408 4.01754C16.5413 4.3979 16.5575 5.03086 16.1772 5.43129C15.7968 5.83172 15.1639 5.84799 14.7634 5.46763C14.0542 4.79399 12.4991 4.32055 11.1097 4.56447C10.4455 4.68108 9.90151 4.94918 9.5275 5.35442Z" fill="#801ED7"/>
</svg>
